kora-light/actions/scalable/text-wiki.svg

<svg xmlns="http://www.w3.org/2000/svg" width="16" height="16" version="1.1">
 <defs>
  <style id="current-color-scheme" type="text/css">
   .ColorScheme-Text { color:#444444; } .ColorScheme-Highlight { color:#4285f4; }
  </style>
 </defs>
 <path style="fill:currentColor" class="ColorScheme-Text" d="M 8.8351,3.0047 8.7942,3.0316 V 3.3184 C 8.7942,3.3533 8.8094,3.3778 8.8396,3.399 8.8704,3.4214 8.9012,3.4349 8.9349,3.4349 L 9.0665,3.4483 C 9.4051,3.4621 9.5646,3.5501 9.611,3.6051 9.6918,3.7026 9.7296,3.8109 9.5339,4.2324 L 8.3631,6.5353 7.3058,4.3981 C 6.9585,3.7151 6.8738,3.5019 7.3966,3.4617 L 7.6053,3.4348 C 7.7058,3.4348 7.7551,3.4 7.7551,3.3318 V 3.0316 L 7.6779,3.0047 4.8237,3.0092 4.7828,3.0361 V 3.3362 C 4.7828,3.4033 4.8545,3.4215 4.9915,3.4393 5.4812,3.503 5.4691,3.5532 5.9535,4.5011 L 7.6643,7.915 6.0625,11.069 5.9717,11.047 2.7635,4.1337 C 2.6886,3.9542 2.6546,3.8215 2.6546,3.7395 2.6546,3.5634 2.8138,3.4704 3.1356,3.4572 L 3.5123,3.4393 C 3.6116,3.4393 3.662,3.4014 3.662,3.3228 V 3.0405 L 3.6257,3.0092 H 0.0318 L 0,3.0405 V 3.3362 C 0,3.3902 0.06538,3.4244 0.20419,3.4393 0.58232,3.4593 0.8333,3.5193 0.9529,3.6185 1.072,3.7189 1.3658,4.3667 1.3658,4.3667 L 5.1276,12.521 C 5.3971,13.116 5.7328,13.209 6.144,12.503 L 7.9909,8.8424 C 8,8.7181 8.1134,8.8827 8.1134,8.8827 L 9.8015,12.494 C 10.106,13.115 10.452,13.175 10.804,12.512 L 14.421,4.4067 C 14.538,4.1079 14.698,3.8792 14.906,3.7123 15.114,3.5466 15.435,3.4534 15.868,3.4345 15.957,3.4345 16,3.3955 16,3.318 V 3.0313 L 15.968,2.9999 H 12.66 L 12.619,3.0313 V 3.318 C 12.619,3.3518 12.634,3.3774 12.665,3.3987 12.696,3.421 12.726,3.4345 12.76,3.4345 L 13.037,3.448 C 13.376,3.4618 13.468,3.5282 13.6,3.6406 13.73,3.7559 13.747,3.9511 13.645,4.2275 L 10.718,11.087 10.605,11.056 8.7442,7.3056 10.745,3.7214 C 10.904,3.496 10.993,3.4548 11.426,3.4347 11.514,3.4347 11.558,3.3968 11.558,3.3182 V 3.0359 L 11.526,3.0045 Z"/>
</svg>

<svg xmlns="http://www.w3.org/2000/svg" style="fill-rule:evenodd;clip-rule:evenodd;stroke-linejoin:round;stroke-miterlimit:2" width="100%" height="100%" version="1.1" viewBox="0 0 16 16" xml:space="preserve">
 <defs>
  <style id="current-color-scheme" type="text/css">
   .ColorScheme-Text { color:#444444; } .ColorScheme-Highlight { color:#4285f4; } .ColorScheme-NeutralText { color:#ff9800; } .ColorScheme-PositiveText { color:#4caf50; } .ColorScheme-NegativeText { color:#f44336; }
  </style>
 </defs>
 <path style="fill:currentColor;" class="ColorScheme-Text" d="M8.835,3.005l-0.041,0.027l0,0.286c0,0.035 0.015,0.06 0.046,0.081c0.03,0.022 0.061,0.036 0.095,0.036l0.131,0.013c0.339,0.014 0.499,0.102 0.545,0.157c0.081,0.098 0.119,0.206 -0.077,0.627l-1.171,2.303l-1.057,-2.137c-0.348,-0.683 -0.432,-0.896 0.091,-0.936l0.208,-0.027c0.101,-0 0.15,-0.035 0.15,-0.103l0,-0.3l-0.077,-0.027l-2.854,0.004l-0.041,0.027l-0,0.3c-0,0.067 0.071,0.086 0.208,0.103c0.49,0.064 0.478,0.114 0.962,1.062l1.711,3.414l-1.602,3.154l-0.09,-0.022l-3.209,-6.913c-0.074,-0.18 -0.108,-0.312 -0.108,-0.394c-0,-0.177 0.159,-0.27 0.481,-0.283l0.376,-0.018c0.1,0 0.15,-0.038 0.15,-0.116l-0,-0.282l-0.036,-0.032l-3.594,0l-0.032,0.032l-0,0.295c-0,0.054 0.065,0.088 0.204,0.103c0.378,0.02 0.629,0.08 0.749,0.18c0.119,0.1 0.413,0.748 0.413,0.748l3.762,8.154c0.269,0.595 0.605,0.688 1.016,-0.018l1.847,-3.661c0.009,-0.124 0.122,0.041 0.122,0.041l1.688,3.611c0.305,0.621 0.651,0.681 1.003,0.018l3.617,-8.105c0.117,-0.299 0.277,-0.528 0.485,-0.695c0.208,-0.165 0.529,-0.259 0.962,-0.277c0.089,-0 0.132,-0.039 0.132,-0.117l-0,-0.287l-0.032,-0.031l-3.308,-0l-0.041,0.031l-0,0.287c-0,0.034 0.015,0.059 0.046,0.081c0.031,0.022 0.061,0.036 0.095,0.036l0.277,0.013c0.339,0.014 0.431,0.08 0.563,0.193c0.13,0.115 0.147,0.31 0.045,0.587l-2.927,6.859l-0.113,-0.031l-1.861,-3.75l2.001,-3.585c0.159,-0.225 0.248,-0.266 0.681,-0.286c0.088,-0 0.132,-0.038 0.132,-0.117l-0,-0.282l-0.032,-0.031l-2.691,-0Z"/>
</svg>
